X:2
T:Scottischs - Rhinlnder
O:France
A:France
C:Trad.
R:Scottish
Z:Transcrit et/ou corrig par Michel BELLON - 2005-09-15
Z:Pour toute observation mailto:galouvielle@free.fr
M:C|
L:1/4
Q:1/2=90
K:G
P:Oberseebach
B>d A>d | GF Fz | D/F/A/c/ ed | D/G/B/d/ ed | B>d A>d | GF Fz | D/F/A/c/ e/d/c/A/ | GB Gz ||
P:Berstett
K:C
GG cc | EE GG | GF FA | (A/G/)(^F/A/) GG | GG AA | BB c2 | cA GE | FG Ez ||
P:Altkirch (1860)
K:G
d>e dc | B(B/A/) GG | AA DD | GB d2 | d>e dc | B(B/A/) GG | AA DD | GB Gz |]
W:1) Du bisch min un ich bin din Tra la la ...
W:Saa, Wenn soll die Hochzitt sin Tra la la ...
W:
W:2) Alle Owe um halb ochte de ich uf min Schtzel werte
W: Alle Owe um halb min kommt min Schtzel zue mir rin.
W:
W:3) Fda spinna kann i nit un ohna Nodla nahj i nit
W: Fda spinna kann i nit un ohna Nodla nahj i nit
%%footer $D   Galouvielle-MBe 2006 \nBranle (France)
